collectives/static/img/icon/ionicon/md-exit.svg

<svg enable-background="new 0 0 512 512" height="512" viewBox="0 0 512 512" width="512" xmlns="http://www.w3.org/2000/svg"><path d="m215.469 332.802 29.863 29.864 106.668-106.666-106.668-106.667-29.863 29.865 55.469 55.469h-206.938v42.666h205.864zm189.865-268.802h-298.668c-23.468 0-42.666 19.198-42.666 42.666v85.334h42.666v-85.333h298.668v298.668h-298.668v-85.335h-42.666v85.334c0 23.468 19.198 42.666 42.666 42.666h298.668c23.468 0 42.666-19.198 42.666-42.666v-298.668c0-23.468-19.198-42.666-42.666-42.666z"/></svg>

<?xml version="1.0" encoding="utf-8"?>
<!-- Generator: Adobe Illustrator 16.2.1, SVG Export Plug-In . SVG Version: 6.00 Build 0)  -->
<!DOCTYPE svg PUBLIC "-//W3C//DTD SVG 1.1//EN" "http://www.w3.org/Graphics/SVG/1.1/DTD/svg11.dtd">
<svg version="1.1" id="Layer_1" xmlns="http://www.w3.org/2000/svg" xmlns:xlink="http://www.w3.org/1999/xlink" x="0px" y="0px"
	 width="512px" height="512px" viewBox="0 0 512 512" enable-background="new 0 0 512 512" xml:space="preserve">
<path d="M215.469,332.802l29.863,29.864L352,256L245.332,149.333l-29.863,29.865l55.469,55.469H64v42.666h205.864L215.469,332.802z
	 M405.334,64H106.666C83.198,64,64,83.198,64,106.666V192h42.666v-85.333h298.668v298.668H106.666V320H64v85.334
	C64,428.802,83.198,448,106.666,448h298.668C428.802,448,448,428.802,448,405.334V106.666C448,83.198,428.802,64,405.334,64z"/>
</svg>
